hush

setcps(144/60/4)

d1 $ slow 8 $ note "[4 4 ] [7 7 ] [5 5 ] [4 4 ] [4 4 ] [7 7 ] [5 5 ] [4 4 ] " # sound "superpiano"

d2 $ slow 8 $ note "[0 0 ] [-1 -1 ] [0 0 ] [0 0 ] [0 0 ] [-1 -1 ] [0 0 ] [0 0 ] " # sound "superpiano"

d3 $ slow 8 $ note "[-3 -3 ] [-5 -5 ] [-3 -3 ] [-5 -5 ] [-5 -5 ] [-5 -5 ] [-3 -3 ] [-5 -5 ] " # sound "superpiano"

d4 $ slow 8 $ note "[-8 -8 ] [-10 -10 ] [-7 -7 ] [-8 -8 ] [-8 -8 ] [-10 -10 ] [-7 -7 ] [-8 -8 ] " # sound "superpiano"

d5 $ slow 8 $ note "[-15 -15 ] [-13 -13 ] [-12 -12 ] [-12 -12 ] [-12 -12 ] [-13 -13 ] [-12 -12 ] [-12 -12 ] " # sound "superpiano"

d6 $ slow 8 $ note "[~ ~ ] [-17 -17 ] [-19 -19 ] [~ ~ ] [~ ~ ] [-17 -17 ] [-19 -19 ] [~ ~ ] " # sound "superpiano"