hush

setcps(120/60/4)

d1 $ slow 4 $ note "[4 ] [5 ] [7 ] [4 ] " # sound "superpiano"

d2 $ slow 4 $ note "[0 ] [0 ] [-1 ] [0 ] " # sound "superpiano"

d3 $ slow 4 $ note "[-5 ] [-3 ] [-5 ] [-5 ] " # sound "superpiano"

d4 $ slow 4 $ note "[-8 ] [-7 ] [-10 ] [-8 ] " # sound "superpiano"

d5 $ slow 4 $ note "[-12 ] [-12 ] [-13 ] [-12 ] " # sound "superpiano"

d6 $ slow 4 $ note "[~ ] [-19 ] [-17 ] [~ ] " # sound "superpiano"