hush

setcps(180/60/4)

d1 $ slow 4 $ note "[4 4 ] [4 4 4 4 4 ] [5 5 ] [4 4 4 ] " # sound "superpiano"

d2 $ slow 4 $ note "[0 0 ] [-1 -1 -1 -1 -1 ] [0 0 ] [-1 -1 -1 ] " # sound "superpiano"

d3 $ slow 4 $ note "[-3 -3 ] [-5 -5 -5 -5 -5 ] [-3 -3 ] [-3 -3 -3 ] " # sound "superpiano"

d4 $ slow 4 $ note "[-8 -8 ] [-8 -8 -8 -8 -8 ] [-7 -7 ] [-8 -8 -8 ] " # sound "superpiano"

d5 $ slow 4 $ note "[-15 -15 ] [-12 -12 -12 -12 -12 ] [-12 -12 ] [-15 -15 -15 ] " # sound "superpiano"

d6 $ slow 4 $ note "[~ ~ ] [~ ~ ~ ~ ~ ] [-19 -19 ] [-20 -20 -20 ] " # sound "superpiano"