hush

setcps(286/60/4)

d1 $ slow 24 $ note "[7 7 ] [~ ] [~ ] [5 5 ] [7 ] [~ ] [7 7 ] [~ ] [~ ] [7 7 ] [5 ] [~ ] [7 7 ] [~ ] [~ ] [5 5 ] [7 ] [~ ] [7 7 ] [~ ] [~ ] [7 7 7 ] [7 7 7 ] [7 7 7 ] " # sound "superpiano"

d2 $ slow 24 $ note "[3 3 ] [0 ] [~ ] [2 2 ] [3 ] [~ ] [2 2 ] [0 ] [~ ] [3 3 ] [2 ] [~ ] [3 3 ] [0 ] [~ ] [2 2 ] [3 ] [~ ] [2 2 ] [0 ] [~ ] [3 3 3 ] [3 3 3 ] [3 3 3 ] " # sound "superpiano"

d3 $ slow 24 $ note "[-2 -2 ] [-4 ] [~ ] [-2 -2 ] [-2 ] [~ ] [-2 -2 ] [-4 ] [~ ] [0 0 ] [-2 ] [~ ] [-2 -2 ] [-4 ] [~ ] [-2 -2 ] [-2 ] [~ ] [-2 -2 ] [-4 ] [~ ] [0 0 0 ] [0 0 0 ] [0 0 0 ] " # sound "superpiano"

d4 $ slow 24 $ note "[-9 -9 ] [-9 ] [~ ] [-7 -7 ] [-9 ] [~ ] [-5 -5 ] [-9 ] [~ ] [-5 -5 ] [-7 ] [~ ] [-9 -9 ] [-9 ] [~ ] [-7 -7 ] [-9 ] [~ ] [-5 -5 ] [-9 ] [~ ] [-5 -5 -5 ] [-5 -5 -5 ] [-5 -5 -5 ] " # sound "superpiano"

d5 $ slow 24 $ note "[~ ~ ] [-12 ] [~ ] [-14 -14 ] [~ ] [~ ] [-10 -10 ] [-12 ] [~ ] [-12 -12 ] [-14 ] [~ ] [~ ~ ] [-12 ] [~ ] [-14 -14 ] [~ ] [~ ] [-10 -10 ] [-12 ] [~ ] [-12 -12 -12 ] [-12 -12 -12 ] [-12 -12 -12 ] " # sound "superpiano"

d6 $ slow 24 $ note "[~ ~ ] [-16 ] [~ ] [~ ~ ] [~ ] [~ ] [-17 -17 ] [-16 ] [~ ] [~ ~ ] [~ ] [~ ] [~ ~ ] [-16 ] [~ ] [~ ~ ] [~ ] [~ ] [-17 -17 ] [-16 ] [~ ] [~ ~ ~ ] [~ ~ ~ ] [~ ~ ~ ] " # sound "superpiano"